resources/svg/hd-screen-o.svg

<svg xmlns="http://www.w3.org/2000/svg" viewBox="0 0 15 15" fill="none"><path d="M2 13.5H13M7.5 10.5V14M14.1896 11.4113C9.81735 10.1621 5.18265 10.1621 0.810401 11.4113C0.654846 11.4558 0.5 11.339 0.5 11.1772L0.5 1.82282C0.5 1.66104 0.654846 1.54424 0.810401 1.58868C5.18265 2.8379 9.81735 2.8379 14.1896 1.58868C14.3452 1.54424 14.5 1.66104 14.5 1.82282V11.1772C14.5 11.339 14.3452 11.4558 14.1896 11.4113Z" stroke="black"/></svg>

<svg xmlns="http://www.w3.org/2000/svg" viewBox="0 0 15 15" fill="none"><path d="M2 13.5h11m-5.5-3V14m6.69-2.589a24.35 24.35 0 00-13.38 0 .243.243 0 01-.31-.234V1.823c0-.162.155-.279.31-.234a24.35 24.35 0 0013.38 0 .243.243 0 01.31.234v9.354a.243.243 0 01-.31.234z" stroke="currentColor"/></svg>
